X: 34448
T: Ride A Mile
R: slip jig
M: 9/8
K: Gmajor
dBG G2A G2e|dBG GB/c/d gfe|dBG G2A G2E|F2G A2 B cBA:|
def g3 fed|g2B B2A B2A|def g2 g fed|e2A A2B cBA|
def g2 g fed|g2B B2A B2A|def g2 g fed|e2A A2a afe||
BAB g2B g2B|BAB g2B b2B|BAB g2B g2B|A3 A2B cBA|
BAB g2B g2B|BAB g2B b2g|BAB g2B g2B|a2 f e2f g2e||

